src/icon/brand/bank-2449/icon_bank-2449_l_white.svg

<svg xmlns="http://www.w3.org/2000/svg" width="20" height="28" viewBox="0 0 20 28"><path fill="#FFF" d="M.947 28h18.105c.105 0 .316-.105.316-.316v-3.368c0-.105-.105-.316-.316-.316H.947c-.105 0-.316.105-.316.316v3.368c.001.105.106.316.316.316zM7.164 3.088c-.196.685-4.896 13.805-5.091 14.295-.098.196 0 .392.098.392.196 0 2.742 1.077 2.839 1.077.097 0 .294-.098.294-.196s1.077-3.035 1.175-3.329h7.05c.098.294 1.175 3.231 1.175 3.329.098.196.294.196.392.196.196 0 2.644-1.077 2.839-1.077.098-.098.098-.294.098-.392-.098-.392-4.896-13.707-5.091-14.295-.49-1.371-1.077-2.742-2.937-2.742C8.143.347 7.556 1.62 7.164 3.088zm5.385 8.91H7.653l2.35-7.343 2.546 7.343z"/></svg>

<svg xmlns="http://www.w3.org/2000/svg" width="30" height="30" viewBox="0 0 30 30"><g fill="none" fill-rule="evenodd"><rect width="30" height="30"/><path fill="#FFF" fill-rule="nonzero" d="M0.947,28 L19.052,28 C19.157,28 19.368,27.895 19.368,27.684 L19.368,24.316 C19.368,24.211 19.263,24 19.052,24 L0.947,24 C0.842,24 0.631,24.105 0.631,24.316 L0.631,27.684 C0.632,27.789 0.737,28 0.947,28 Z M7.164,3.088 C6.968,3.773 2.268,16.893 2.073,17.383 C1.975,17.579 2.073,17.775 2.171,17.775 C2.367,17.775 4.913,18.852 5.01,18.852 C5.107,18.852 5.304,18.754 5.304,18.656 C5.304,18.558 6.381,15.621 6.479,15.327 L13.529,15.327 C13.627,15.621 14.704,18.558 14.704,18.656 C14.802,18.852 14.998,18.852 15.096,18.852 C15.292,18.852 17.74,17.775 17.935,17.775 C18.033,17.677 18.033,17.481 18.033,17.383 C17.935,16.991 13.137,3.676 12.942,3.088 C12.452,1.717 11.865,0.346 10.005,0.346 C8.143,0.347 7.556,1.62 7.164,3.088 Z M12.549,11.998 L7.653,11.998 L10.003,4.655 L12.549,11.998 Z" transform="translate(5 1)"/></g></svg>
